!! Example 3: "Time Like a Fleeting Shadow Flies"
!! from William H. Tallmadge, "Folk Organum: A Study of Origins" in
!! "American Music" Vol. 2, No. 3 (1984) p.52
!! Irregular meter
**kern	**kern
8D	4A
8E	.
=1	=1
4A	4d
4A	4d
8.F#	8.B
16D	16A
8E	8A
8F#	8B
=2	=2
4D	4A
4D	4B
8.D	8.A
16r	16r
{8.A	4d
16d}	.
=3	=3
4d	4d
4d	4d
8B	4d
8A	.
4A	4d
=4	=4
4A	4A
16r	16r
8A	8A
8d	8d
=5	=5
4d	4d
4d	4d
8.B	4d
16A	.
4A	4d
=6	=6
4A	4A
4F#	8.A
.	16B
8.D	8.A
16r	16r
8D	8A
8E	8B
=7	=7
4A	4d
{4A	{4d
8F#}	4B}
16D	.
16r	.
8.E	8.A
32F#	32B
32E	32A
=8	=8
2.D	2.A
==	==
*-	*-
